azure-patterns/svg-check-circle.svg

<svg xmlns="http://www.w3.org/2000/svg" viewBox="0 0 49 49">
                                
                            
	<path d="M24.5818 39.7562C33.0924 39.7562 39.9917 32.8618 39.9917 24.3571C39.9917 15.8524 33.0924 8.95801 24.5818 8.95801C16.0711 8.95801 9.17188 15.8524 9.17188 24.3571C9.17188 32.8618 16.0711 39.7562 24.5818 39.7562Z" fill="#0078D4"></path>
	<path d="M33.1887 19.1514L31.0559 17.0117L20.3499 27.7102L17.1466 24.5007L15.0054 26.6404L20.3499 31.9812L33.1887 19.1514Z" fill="#50E6FF"></path>
	<path d="M42.2507 40.5983C45.7744 36.6559 48.0168 31.5341 48.3118 25.8984H43.4056C43.1274 30.1778 41.4246 34.0697 38.7607 37.1108L42.2507 40.5983Z" fill="#0078D4"></path>
	<path d="M6.58353 8.5791C3.00081 12.5384 0.724735 17.6939 0.429688 23.3717H5.56351C5.85013 19.1007 7.54455 15.2172 10.1915 12.1846L6.58353 8.5791Z" fill="#50E6FF"></path>
	<path d="M8.3877 42.5023C12.3582 46.0488 17.5089 48.298 23.1906 48.576V43.5553C18.9167 43.2689 15.0305 41.5588 11.9957 38.9053L8.3877 42.5023Z" fill="#0078D4"></path>
	<path d="M0.429688 25.8984C0.724735 31.5762 3.00081 36.7317 6.5751 40.691L10.1831 37.0855C7.53612 34.0529 5.8417 30.1694 5.56351 25.8984H0.429688V25.8984Z" fill="#0078D4"></path>
	<path d="M42.2424 8.67188L38.7524 12.1594C41.4163 15.1921 43.1191 19.0839 43.4058 23.3718H48.312C48.0169 17.7361 45.7746 12.6143 42.2424 8.67188Z" fill="#50E6FF"></path>
	<path d="M25.7192 48.5595C31.3757 48.2479 36.5011 45.9734 40.4463 42.41L36.9479 38.9141C33.9047 41.5676 30.0016 43.2693 25.7192 43.5473V48.5595Z" fill="#0078D4"></path>
	<path d="M25.7192 0.727539V5.73982C30.0016 6.01782 33.8963 7.71104 36.931 10.3562L40.4295 6.86022C36.4927 3.30529 31.3673 1.03923 25.7192 0.727539Z" fill="#50E6FF"></path>
	<path d="M23.1904 0.719727C17.5255 0.989295 12.3748 3.23851 8.4043 6.77659L12.0039 10.3736C15.0386 7.7285 18.9164 6.02685 23.182 5.74044V0.719727H23.1904Z" fill="#50E6FF"></path>
</svg>

<svg xmlns="http://www.w3.org/2000/svg" viewBox="0 0 49 49"><path d="M24.582 39.756c8.51 0 15.41-6.894 15.41-15.399 0-8.505-6.9-15.399-15.41-15.399s-15.41 6.894-15.41 15.4c0 8.504 6.9 15.398 15.41 15.398z" fill="#0078D4"/><path d="M33.189 19.151l-2.133-2.14-10.706 10.7-3.203-3.21-2.142 2.14 5.345 5.34 12.839-12.83z" fill="#50E6FF"/><path d="M42.25 40.598a23.889 23.889 0 0 0 6.062-14.7h-4.906a18.832 18.832 0 0 1-4.645 11.213l3.49 3.487z" fill="#0078D4"/><path d="M6.584 8.58A23.841 23.841 0 0 0 .43 23.371h5.134a18.9 18.9 0 0 1 4.627-11.187L6.584 8.579z" fill="#50E6FF"/><path d="M8.388 42.502a23.914 23.914 0 0 0 14.803 6.074v-5.02a18.9 18.9 0 0 1-11.195-4.65l-3.608 3.596zM.43 25.898a23.88 23.88 0 0 0 6.145 14.793l3.608-3.605a18.838 18.838 0 0 1-4.62-11.188H.43z" fill="#0078D4"/><path d="M42.242 8.672l-3.49 3.487a18.85 18.85 0 0 1 4.654 11.213h4.906a23.85 23.85 0 0 0-6.07-14.7z" fill="#50E6FF"/><path d="M25.72 48.56a23.878 23.878 0 0 0 14.726-6.15l-3.498-3.496a18.927 18.927 0 0 1-11.229 4.633v5.013z" fill="#0078D4"/><path d="M25.72.728V5.74a18.891 18.891 0 0 1 11.211 4.616l3.498-3.496A23.863 23.863 0 0 0 25.72.728zM23.19.72C17.525.99 12.375 3.239 8.404 6.777l3.6 3.597A18.909 18.909 0 0 1 23.182 5.74V.72h.008z" fill="#50E6FF"/></svg>
